X: 5
T: Larry Grogan
C: Larry Grogan
Z: John E Roche
S: https://thesession.org/tunes/460#setting47592
R: jig
M: 6/8
L: 1/8
K: Gmaj
|:BGc BAB|AFA ABc|dBG cAF|G/2G/2GG G2 G:|
=f3 edc|!trill!B2 d dBG|=f3 efg|AcA A/2B/2cA|
=fdf ecg|dBe dBG|c2 B AFA|G/2G/2GG G2 G||

%-------------------- TUNE SEPARATOR --------------------%

